!!!OTL: Es wollt sich ein Herr ausreiten (Band 1), S. 59
!!!id: P0793
**kern
*clefG2
*k[f#]
*G:
{4d
=1
4g
8g
8g
4g
8a
8a
=2
4f#
8e
8f#
4g}
8r
=3
{8d
=4
4g
4g
8g
8b
8a
8g
=5
4f#
8e
8f#
4g}
=6
{4d
=7
4e
4g
4g
8g
8g
=8
4f#
8a
8b
4a}
=9
{4b
=10
4g
4b
8b
8a
8cc
8a
=11
4g
4f#
4g}
==
*-
!!!minrhy: 8
!!!meters: 4/4 ]  ZZ[4
!!!cut: Es wollt sich ein Herr ausreiten (Band 1), S. 59
!!!reg: Lothringen
!!!trd: PINCK, Louis: Verklingende Weisen, Bd 1, Metz 1928
!!!rhy1: X_  X_XXX_XX  X_XXX_0
!!!rhy2: X  X_X_XXXX  X_XXX_
!!!key: P0793  08  G 4/4 ]  ZZ[4
!!!mod: HEPTATONIK IONISCH]  AMBITUS[7b
!!!kad: 1121
!!!akz: 11-71_11-71_-61-72_1311_
!!!fot: 'a__av_b__c__
!!!for: 'a__b__c__d__
!!!fok: '~a_~a_/__\__
!! PHRAS[AUFTAKTIG]
!!!fkt: geistliche, religiöse Lieder
!! LOTH VKL
!! PR[23] 2K[6] 2G[28] 3K[0] 3G[0] 4A[2] 4Ü[0] 5A[0] 6K[0] 6G[0]
!! 7K[0] 7G[0] 8A[0] MEHR[0] SI[36] ABS[47] SR[34] SP[2]
!! ST[0] 2k[9] 2g[32] 3k[0] 3g[0] 4d[0] 4ü[0] 5d[0] 6k[0] 6g[0]
!! 7k[0] 7g[0] 8d[0] mehr[0] si[40] dm[-4] sr[40] sp[0]
!! 1F[58] 2F[42] 3F[0] 4F[0] LF[0] 2P[0] 3P[0] 4P[0] TRI[0] DF[2] AB[53]
!! TF[0] U3K[0] U3[0] U4[0] U4Ü[0] U5[0] U6K[0] U6[0] U7K[4] U7[0]
!! N1[23] N2K[0] N2[17] N3K[23] N3[0] N4[17] N4Ü[0] N5[17] N6K[0] N6[0]
!!!n7k: 0] N7[0] O1[0] O2K[0] O2[0] O3K[0] O3[0] HÖ[0
